X:1
T:Donna perche mi fuggi
T:Giovanni Giacomo de Antiquis
T:Source : Secondo libro delle villanelle a 3 voci---Venetia---Figlio d'A.Gardano---1574. Editor : André Vierendeels (20/03/16).
T:Notes : Original clefs : C1, C2, C4 Editorial accidentals above the staff "Alla napolitana" Music by composers from Bari, collected by G.de Antiquis
T:Donna perche mi fuggi
T:©
T:©
C:Giovanni Giacomo de Antiquis
Z:©
%%score [ 1 2 3 ]
L:1/8
Q:1/4=96
M:4/4
K:C
V:1 treble nm="Soprano" snm="S"
V:2 treble nm="Alto" snm="A"
V:3 treble-8 nm="Tenor" snm="T"
V:1
 A4 _B2 A2 | A2 G2 c4 | B2 A4 d2 | B4 c4 |[M:2/4] c2 d2 |[M:3/4] B4 A2 :: A2 c2 c2 |[M:4/4] B4 c4 | %8
w: 1)Don- na, per-|che mi fug-|gi quan- do|ve- di,|quan- do|1)ve- di|il mio sem-|bian- te|
w: 2)Que- sto vo-|glio ch'af- fer-|mi'e que- sto|cre- di,|que- sto|2)cre- di,|ch'io non son|a- ni-|
w: 3)Fug- gi deh|non fug- gir|che me con-|ce- di,|me con-|3)ce- di,|tan- to spa-|cio di|
w: 4)E da- to|fi- ne all'|a- mo- ro-|si guai,|a- mo-|4)ro- si,|son cer- to|che fug-|
 G2 A2 B2 A2- | A2 G2 A2 A2 | c2 c2 GFGA | B2 B2 A4- | A2 A2 F2 G2 | E4 D4 :| %14
w: se tu fai cor|_ mi- o, che|1)quant' a- mar _ _ _|_ si puo|_ t'hab- bi'a- mat'|i- o.|
w: mal per- ver- so'e|_ ri- o, ma|2)com' e- gnel- * * *|* lo man-|* su- e- to'e|pi- o.|
w: tem- p'o- di cor|_ mi- o, che|3)sfo- ghi l'i- * * *|* ra tua|_ col mio de-|si- o|
w: gir piu non vo-|* ra- i, an-|4)zi che fus- * * *|* si me-|* co sem- pre|ma- i.|
V:2
 F4 G2 F2 |"^#" E2 G4 F2 | G2 F4 F2 | G4 E2 A2- |[M:2/4] A2 A2- |[M:3/4]"^#" A2 G2 A2 :: F2 ED EF | %7
w: 1)Don- na, per-|che mi fug-|gi quan- do|ve- di quan-|* do|1) ve- di|il mio _ sem- *|
w: 2)Que- sto vo-|glio ch'af- fer-|mi'e que- sto|cre- di, que-|* sto|2) cre- di,|ch'io non _ son _|
[M:4/4] G4 A4 | E3 E G2 C2 | D4 E4 | z2 A2 E2 E2 | G2 G2 F4 | E4 D2 D2- |"^#" D2 C2 D4 :| %14
w: bian- te|se tu fai cor|mi- o,|che quant' a-|mar si puo|t'hab- bi'a- mat'|_ i- o.|
w: a- ni-|mal per- ver- so'e|ri- o,|ma com' a-|gnel- lo man-|su- e- to'e|_ pi- o.|
V:3
 d4 G2 d2 | c2 B2 A4 | G2 d4 d2 | e4 c2 f2- |[M:2/4] f2 d2 |[M:3/4] e4 A2 :: d2 c2 A2 | %7
w: 3)Fug- gi deh|non fug- gir|che me con-|ce- di, me|_ con-|3)ce- di,|tan- to spa-|
w: 4)E da- to|fi- ne all'|a- mo- ro-|si guai, a-|* mo-|4)ro- si,|son cer- to|
[M:4/4] e4 A4 | c3 c G2 A2 | _B4 A4 | z2 A2 c2 c2 | G2 G2 d4 | A4 _B2 G2 | A4 D4 :| %14
w: cio di|tem- p'o- di cor|mi- o,|sfo- ghi l'i-|ra tu- a|col mio de-|si- o.|
w: che fug-|gir piu non vo-|ra- i,|an- zi che|fus- si me-|co sem- pre|ma- i.|

